; generated by PrusaSlicer 2.5.0 on 2023-01-12 at 03:07:10 UTC

; 

; external perimeters extrusion width = 0.42mm
; perimeters extrusion width = 0.44mm
; infill extrusion width = 0.44mm
; solid infill extrusion width = 0.44mm
; top infill extrusion width = 0.40mm
; support material extrusion width = 0.36mm
; first layer extrusion width = 0.42mm

M201 X500 Y500 Z100 E5000 ; sets maximum accelerations, mm/sec^2
M203 X500 Y500 Z10 E60 ; sets maximum feedrates, mm / sec
M204 P500 R1000 T500 ; sets acceleration (P, T) and retract acceleration (R), mm/sec^2
M205 X8.00 Y8.00 Z0.40 E5.00 ; sets the jerk limits, mm/sec
M205 S0 T0 ; sets the minimum extruding and travel feed rate, mm/sec
M107
;TYPE:Custom
G90 ; use absolute coordinates
M83 ; extruder relative mode
M140 S65 ; set final bed temp
M104 S150 ; set temporary nozzle temp to prevent oozing during homing
G4 S10 ; allow partial nozzle warmup
G28 ; home all axis
G1 Z50 F240
G1 X2 Y10 F3000
M104 S210 ; set final nozzle temp
M190 S65 ; wait for bed temp to stabilize
M109 S210 ; wait for nozzle temp to stabilize
G1 Z0.28 F240
G92 E0
G1 Y140 E10 F1500 ; prime the nozzle
G1 X2.3 F5000
G92 E0
G1 Y10 E10 F1200 ; prime the nozzle
G92 E0
template_custom_gcode = 
thumbnails = 
toolchange_gcode = 
use_firmware_retraction = 0
use_relative_e_distances = 1
use_volumetric_e = 0
variable_layer_height = 1
wipe = 1
z_offset = 0
G21 ; set units to millimeters
G90 ; use absolute coordinates
M83 ; use relative distances for extrusion
; Filament gcode
M107
;LAYER_CHANGE
;Z:0.2
;HEIGHT:0.2
;BEFORE_LAYER_CHANGE
G92 E0
;0.2


G1 E-1 F3600
G1 Z.2 F9000
;AFTER_LAYER_CHANGE
;0.2
G1 X92.63 Y83.247
G1 E1 F2400
M204 S500
;TYPE:Skirt/Brim
;WIDTH:0.42
G1 F1200
G1 X93.93 Y81.978 E.05696
G1 X94.846 Y81.307 E.03559
G1 X95.802 Y80.756 E.03462
G1 X97.15 Y80.187 E.04587
G1 X98.213 Y79.886 E.03462
G1 X99.301 Y79.701 E.03462
G1 X100.314 Y79.63 E.03181
G1 X119.956 Y79.641 E.61587
G1 X121.787 Y79.886 E.05793
G1 X123.188 Y80.309 E.04587
G1 X124.849 Y81.117 E.05793
G1 X125.764 Y81.736 E.03462
G1 X126.584 Y82.428 E.03365
G1 X127.6 Y83.523 E.04684
G1 X128.621 Y85.063 E.05793
G1 X129.226 Y86.395 E.04587
G1 X129.712 Y88.178 E.05793
G1 X129.867 Y89.632 E.04587
G1 X129.867 Y130.368 E1.27722
G1 X129.712 Y131.822 E.04587
G1 X129.226 Y133.605 E.05793
G1 X128.621 Y134.937 E.04587
G1 X128.044 Y135.879 E.03462
G1 X126.865 Y137.301 E.05793
G1 X126.047 Y138.042 E.03462
G1 X124.849 Y138.883 E.04587
G1 X123.874 Y139.402 E.03462
G1 X122.136 Y140.028 E.05793
G1 X121.055 Y140.252 E.03462
G1 X119.686 Y140.37 E.04307
G1 X100.314 Y140.37 E.60742
G1 X99.301 Y140.299 E.03181
G1 X98.213 Y140.114 E.03462
G1 X96.812 Y139.691 E.04587
G1 X95.151 Y138.883 E.05793
G1 X94.236 Y138.264 E.03462
G1 X93.393 Y137.552 E.03462
G1 X92.4 Y136.477 E.04587
G1 X91.757 Y135.579 E.03462
G1 X90.905 Y133.94 E.05793
G1 X90.446 Y132.551 E.04587
G1 X90.231 Y131.467 E.03462
G1 X90.133 Y130.368 E.03462
G1 X90.133 Y89.632 E1.27722
G1 X90.288 Y88.178 E.04587
G1 X90.774 Y86.395 E.05793
G1 X91.379 Y85.063 E.04587
G1 X91.956 Y84.121 E.03462
G1 X92.593 Y83.294 E.03274
; printing object spinner-top.stl id:0 copy 2
G1 E-.7 F3600
;WIPE_START
G1 F7200
G1 X93.021 Y82.873 E-.285
;WIPE_END
G1 E-.015 F3600
G1 X99.436 Y124.205 F9000
G1 E1 F2400
;TYPE:Support material interface
;WIDTH:0.36
G1 F1200
G1 X99.015 Y124.295 E.01135
G1 X98.404 Y124.493 E.01692
G1 X97.03 Y125.867 E.05122
G1 X96.651 Y126.215 E.01358
G1 X96.357 Y126.54 E.01154
G1 X94.999 Y127.898 E.05065
G1 X94.876 Y128.248 E.00977
G1 X94.712 Y128.928 E.01846
G1 X95.162 Y127.505 F9000
G1 F1200
G1 X95.423 Y127.007 E.01482
G1 X95.723 Y126.551 E.01439
G1 X96.238 Y125.928 E.0213
G1 X96.636 Y125.549 E.01451
G1 X97.065 Y125.211 E.01439
G1 X97.524 Y124.916 E.01438
G1 X97.992 Y124.671 E.01392
G1 X98.1 Y125.165 F9000
G1 F1200
G1 X98.747 Y124.893 E.01851
G1 X99.436 Y124.205 E.02566
G1 X99.814 Y124.149 E.01008
G1 X100.272 Y124.111 E.01213
G1 X99.727 Y124.657 E.02034
G1 X100.125 Y124.613 E.01058
G1 X100.526 Y124.601 E.01058
G1 X100.998 Y124.129 E.01759
G1 X101.449 Y124.181 E.01196
G1 X101.649 Y124.222 E.00538
G1 X101.22 Y124.651 E.01598
G1 X101.843 Y124.77 E.01674
G1 X102.244 Y124.37 E.01492
G1 X102.788 Y124.569 E.01529
G1 X102.406 Y124.951 E.01424
G1 X102.924 Y125.177 E.01489
G1 X103.291 Y124.809 E.0137
G1 X103.756 Y125.088 E.01429
G1 X103.399 Y125.445 E.01333
G1 X103.833 Y125.755 E.01405
G1 X104.185 Y125.403 E.01313
G1 X104.579 Y125.752 E.01388
G1 X104.23 Y126.101 E.013
G1 X104.592 Y126.482 E.01386
G1 X104.942 Y126.132 E.01306
G1 X105.273 Y126.545 E.01394
G1 X104.918 Y126.899 E.01322
G1 X105.205 Y127.356 E.01422
G1 X105.568 Y126.993 E.01353
G1 X105.826 Y127.479 E.0145
G1 X105.45 Y127.855 E.01402
G1 X105.651 Y128.397 E.01524
G1 X106.043 Y128.005 E.01462
G1 X106.214 Y128.577 E.01575
G1 X105.8 Y128.991 E.01544
G1 X105.882 Y129.653 E.01757
G1 X106.333 Y129.202 E.0168
G1 X106.352 Y129.32 E.00314
G1 X106.389 Y129.889 E.01505
G1 X105.877 Y130.401 E.01908
G1 X105.848 Y130.705 E.00804
G1 X105.736 Y131.286 E.01561
G1 X106.352 Y130.671 E.02296
G1 X106.263 Y131.215 E.01454
G1 X106.164 Y131.601 E.01052
G1 X105.287 Y132.478 E.0327
G1 X105.142 Y132.744 E.00798
G1 X104.906 Y133.109 E.01145
G1 X104.641 Y133.453 E.01145
G1 X104.349 Y133.775 E.01146
G1 X104.032 Y134.072 E.01145
G1 X103.693 Y134.343 E.01145
G1 X103.332 Y134.586 E.01146
G1 X102.978 Y134.787 E.01073
G1 X102.104 Y135.661 E.03258
G1 X101.449 Y135.809 E.01772
G1 X101.18 Y135.842 E.00714
G1 X101.788 Y135.234 E.02267
G1 X101.306 Y135.329 E.01294
G1 X100.904 Y135.374 E.01069
G1 X100.396 Y135.882 E.01893
G1 X100.097 Y135.872 E.00789
G1 X99.707 Y135.828 E.01034
G1 X100.157 Y135.378 E.01678
G1 X99.497 Y135.294 E.01753
G1 X99.082 Y135.71 E.0155
G1 X98.511 Y135.537 E.01572
G1 X98.902 Y135.146 E.01458
G1 X98.358 Y134.946 E.01527
G1 X97.987 Y135.317 E.01384
G1 X97.501 Y135.06 E.0145
G1 X97.862 Y134.699 E.01347
G1 X97.406 Y134.412 E.01421
G1 X97.05 Y134.767 E.01327
G1 X96.635 Y134.44 E.01396
G1 X96.987 Y134.088 E.01313
G1 X96.604 Y133.727 E.01386
G1 X96.254 Y134.077 E.01306
G1 X95.907 Y133.68 E.01389
G1 X96.259 Y133.328 E.01314
G1 X95.952 Y132.892 E.01406
G1 X95.594 Y133.25 E.01334
G1 X95.423 Y132.983 E.00835
G1 X95.317 Y132.783 E.00596
G1 X95.682 Y132.419 E.0136
G1 X95.454 Y131.903 E.01486
G1 X95.075 Y132.282 E.01413
G1 X94.875 Y131.739 E.01526
G1 X95.277 Y131.337 E.015
G1 X95.154 Y130.716 E.01668
G1 X94.726 Y131.145 E.01598
G1 X94.634 Y130.493 E.01735
G1 X95.108 Y130.019 E.01767
G1 X95.112 Y129.718 E.00794
G1 X95.163 Y129.221 E.01318
G1 X94.617 Y129.767 E.02035
G1 X94.648 Y129.32 E.01182
G1 X94.712 Y128.928 E.01045
G1 X95.401 Y128.239 E.02571
G1 X95.669 Y127.596 E.01835
G1 E-.7 F3600
;WIPE_START
G1 F7200
G1 X95.438 Y128.15 E-.285
;WIPE_END
G1 E-.015 F3600
G1 X100.552 Y124.974 F9000
G1 E1 F2400
;TYPE:Support material
;WIDTH:0.42
G1 F1200
G1 X100.862 Y124.986 E.00973
G1 X101.264 Y125.032 E.01268
G1 X101.661 Y125.109 E.01268
G1 X102.05 Y125.218 E.01269
G1 X102.429 Y125.359 E.01267
G1 X102.796 Y125.529 E.01268
G1 X103.228 Y125.779 E.01563
G1 X103.483 Y125.955 E.00973
G1 X103.798 Y126.208 E.01268
G1 X104.092 Y126.486 E.01268
G1 X104.363 Y126.786 E.01268
G1 X104.662 Y127.185 E.01563
G1 X104.828 Y127.447 E.00973
G1 X105.019 Y127.804 E.01268
G1 X105.18 Y128.175 E.01269
G1 X105.312 Y128.557 E.01267
G1 X105.43 Y129.041 E.01563
G1 X105.491 Y129.441 E.01268
G1 X105.523 Y130 E.01754
G1 X105.49 Y130.558 E.01753
G1 X105.429 Y130.958 E.01269
G1 X105.335 Y131.351 E.01268
G1 X105.177 Y131.824 E.01563
G1 X105.055 Y132.109 E.00973
G1 X104.87 Y132.469 E.01268
G1 X104.657 Y132.813 E.01268
G1 X104.417 Y133.138 E.01267
G1 X104.086 Y133.511 E.01564
G1 X103.579 Y133.961 E.02125
G1 X103.22 Y134.217 E.01383
G1 X102.871 Y134.422 E.01268
G1 X102.421 Y134.635 E.01564
G1 X102.076 Y134.763 E.01154
G1 X101.743 Y134.861 E.01087
G1 X101.347 Y134.945 E.01268
G1 X100.946 Y134.997 E.01268
G1 X100.448 Y135.017 E.01563
G1 X100.138 Y135.004 E.00973
G1 X99.736 Y134.958 E.01268
G1 X99.339 Y134.881 E.01268
G1 X98.95 Y134.772 E.01269
G1 X98.571 Y134.632 E.01267
G1 X98.204 Y134.461 E.01268
G1 X97.772 Y134.211 E.01563
G1 X97.517 Y134.035 E.00973
G1 X97.202 Y133.782 E.01268
G1 X96.908 Y133.504 E.01268
G1 X96.636 Y133.202 E.01275
G1 X96.338 Y132.805 E.01557
G1 X96.172 Y132.543 E.00973
G1 X95.981 Y132.186 E.01268
G1 X95.82 Y131.815 E.01268
G1 X95.688 Y131.433 E.01268
G1 X95.57 Y130.949 E.01563
G1 X95.52 Y130.642 E.00973
G1 X95.484 Y130.24 E.01268
G1 X95.481 Y129.835 E.01268
G1 X95.51 Y129.432 E.01268
G1 X95.59 Y128.94 E.01564
G1 X95.72 Y128.461 E.01556
G1 X95.945 Y127.881 E.01951
G1 X96.13 Y127.521 E.01268
G1 X96.343 Y127.177 E.01268
G1 X96.624 Y126.803 E.01467
G1 X96.914 Y126.479 E.01364
G1 X97.138 Y126.264 E.00973
G1 X97.449 Y126.006 E.01268
G1 X97.78 Y125.773 E.01268
G1 X98.129 Y125.568 E.01268
G1 X98.579 Y125.355 E.01563
G1 X98.929 Y125.226 E.01168
G1 X99.257 Y125.129 E.01073
G1 X99.653 Y125.045 E.01268
G1 X100.054 Y124.993 E.01268
G1 X100.495 Y124.973 E.01386
G1 X104.972 Y131.871 F9000
G1 F1200
G1 X104.972 Y128.612 E.10217
G1 X104.749 Y128.028 E.01961
G1 X104.553 Y127.651 E.01332
G1 X104.553 Y132.339 E.14698
G1 X104.374 Y132.625 E.01059
G1 X104.134 Y132.947 E.01258
G1 X104.134 Y127.043 E.18512
G1 X103.715 Y126.594 E.01925
G1 X103.715 Y133.396 E.21326
G1 X103.296 Y133.75 E.01721
G1 X103.296 Y126.239 E.2355
G1 X102.877 Y125.964 E.01573
G1 X102.877 Y134.027 E.25281
G1 X102.458 Y134.246 E.01483
G1 X102.458 Y125.744 E.26657
G1 X102.039 Y125.573 E.01418
G1 X102.039 Y134.416 E.27726
G1 X101.62 Y134.541 E.01371
G1 X101.62 Y125.449 E.28508
G1 X101.201 Y125.366 E.01339
G1 X101.201 Y134.624 E.29029
G1 X100.783 Y134.668 E.01321
G1 X100.783 Y125.323 E.293
G1 X100.464 Y125.313 E.00999
G1 X100.364 Y125.317 E.00315
G1 X100.364 Y134.673 E.29337
G1 X99.945 Y134.642 E.01317
G1 X99.945 Y125.348 E.2914
G1 X99.526 Y125.417 E.01332
G1 X99.526 Y134.573 E.28706
G1 X99.107 Y134.464 E.01357
G1 X99.107 Y125.526 E.28023
G1 X98.688 Y125.678 E.01397
G1 X98.688 Y134.312 E.27073
G1 X98.269 Y134.111 E.01458
G1 X98.269 Y125.879 E.25809
G1 X97.85 Y126.138 E.01543
G1 X97.85 Y133.852 E.24188
G1 X97.431 Y133.531 E.01656
G1 X97.431 Y126.459 E.22173
G1 X97.012 Y126.875 E.01851
G1 X97.012 Y133.115 E.19565
G1 X96.845 Y132.922 E.008
G1 X96.593 Y132.573 E.0135
G1 X96.593 Y127.418 E.16164
G1 X96.427 Y127.685 E.00987
G1 X96.174 Y128.209 E.01825
G1 X96.174 Y132.188 E.12474
G1 E-.7 F3600
;WIPE_START
G1 F7200
G1 X96.174 Y131.588 E-.285
;WIPE_END
G1 E-.015 F3600
G1 X102.656 Y135.475 F9000
G1 E1 F2400
;TYPE:Support material interface
;WIDTH:0.36
G1 F1200
G1 X103.377 Y135.131 E.02106
G1 X105.634 Y132.874 E.08416
G1 X105.834 Y132.496 E.01126
G1 X105.976 Y132.155 E.00975
G1 X105.211 Y133.528 F9000
G1 F1200
G1 X104.762 Y134.062 E.0184
G1 X104.364 Y134.441 E.01451
G1 X104.161 Y134.607 E.00689
G1 E-.7 F3600
;WIPE_START
G1 F7200
G1 X104.364 Y134.441 E-.12408
G1 X104.609 Y134.208 E-.16092
;WIPE_END
G1 E-.015 F3600
G1 X113.968 Y127.975 F9000
G1 E1 F2400
G1 F1200
G1 X113.836 Y128.389 E.01146
G1 X114.713 Y127.512 E.0327
G1 X114.858 Y127.246 E.00798
G1 X115.094 Y126.882 E.01145
G1 X115.359 Y126.537 E.01145
G1 X115.651 Y126.215 E.01146
G1 X115.968 Y125.918 E.01145
G1 X116.307 Y125.647 E.01145
G1 X116.668 Y125.404 E.01146
G1 X117.022 Y125.203 E.01073
G1 X117.896 Y124.33 E.03258
G1 X117.488 Y124.461 E.0113
G1 X117.344 Y124.516 F9000
G1 F1200
G1 X116.623 Y124.859 E.02106
G1 X114.366 Y127.116 E.08416
G1 X114.166 Y127.494 E.01126
G1 X114.024 Y127.835 E.00975
G1 X114.425 Y128.169 F9000
G1 F1200
G1 X114.264 Y128.704 E.01474
G1 X113.648 Y129.321 E.02298
G1 X113.611 Y130.101 E.0206
G1 X114.123 Y129.589 E.01909
G1 X114.104 Y129.99 E.01058
G1 X114.118 Y130.338 E.00917
G1 X113.667 Y130.788 E.0168
G1 X113.786 Y131.413 E.01677
G1 X114.2 Y130.999 E.01544
G1 X114.349 Y131.593 E.01616
G1 X113.957 Y131.985 E.01462
G1 X114.174 Y132.511 E.015
G1 X114.55 Y132.135 E.01402
G1 X114.795 Y132.634 E.01465
G1 X114.432 Y132.997 E.01353
G1 X114.563 Y133.204 E.00646
G1 X114.727 Y133.445 E.0077
G1 X115.082 Y133.091 E.01322
G1 X115.408 Y133.508 E.01396
G1 X115.058 Y133.858 E.01306
G1 X115.238 Y134.062 E.00717
G1 X115.421 Y134.238 E.0067
G1 X115.77 Y133.889 E.013
G1 X116.167 Y134.235 E.01389
G1 X115.815 Y134.587 E.01313
G1 X116.065 Y134.779 E.0083
G1 X116.244 Y134.902 E.00572
G1 X116.601 Y134.545 E.01333
G1 X117.076 Y134.813 E.01438
G1 X116.709 Y135.181 E.0137
G1 X117.212 Y135.421 E.0147
G1 X117.594 Y135.039 E.01424
G1 X118.157 Y135.22 E.01558
G1 X117.756 Y135.62 E.01492
G1 X118.351 Y135.768 E.01617
G1 X118.78 Y135.339 E.01598
G1 X119.474 Y135.389 E.01833
G1 X119.002 Y135.861 E.01759
G1 X119.728 Y135.879 E.01915
G1 X120.273 Y135.333 E.02034
G1 X120.733 Y135.247 E.01233
G1 X121.097 Y135.146 E.00997
G1 X121.559 Y134.981 F9000
G1 F1200
G1 X121.253 Y135.097 E.00865
G1 X120.564 Y135.785 E.02566
G1 X120.985 Y135.695 E.01135
G1 X121.596 Y135.497 E.01692
G1 X122.518 Y134.575 E.03439
G1 X122.877 Y134.575 E.00946
G1 X123.255 Y134.266 E.01287
G1 X123.595 Y133.942 E.01239
G1 X123.908 Y133.589 E.01244
G1 X124.191 Y133.21 E.01248
G1 X124.427 Y132.835 E.01167
G1 X124.615 Y132.479 E.01062
G1 X125.001 Y132.092 E.01441
G1 X125.124 Y131.743 E.00977
G1 X125.288 Y131.062 E.01846
G1 X124.598 Y131.751 E.02571
G1 X124.773 Y131.133 E.01695
G1 X124.837 Y130.769 E.00973
G1 X125.383 Y130.223 E.02035
G1 X125.388 Y129.864 E.00947
G1 X125.366 Y129.497 E.00971
G1 X124.892 Y129.971 E.01767
G1 X124.846 Y129.274 E.01841
G1 X125.274 Y128.845 E.01599
G1 X125.263 Y128.775 E.00186
G1 X125.125 Y128.251 E.0143
G1 X124.723 Y128.653 E.015
G1 X124.546 Y128.087 E.01564
G1 X124.925 Y127.708 E.01413
G1 X124.683 Y127.207 E.01468
G1 X124.318 Y127.572 E.0136
G1 X124.048 Y127.098 E.01437
G1 X124.406 Y126.74 E.01334
G1 X124.093 Y126.31 E.01403
G1 X123.741 Y126.662 E.01314
G1 X123.396 Y126.264 E.0139
G1 X123.746 Y125.913 E.01306
G1 X123.365 Y125.55 E.01386
G1 X123.013 Y125.902 E.01313
G1 X122.594 Y125.579 E.01397
G1 X122.95 Y125.223 E.01327
G1 X122.499 Y124.93 E.01417
G1 X122.138 Y125.291 E.01347
G1 X121.642 Y125.044 E.01461
G1 X122.013 Y124.673 E.01384
G1 X121.75 Y124.551 E.00763
G1 X121.489 Y124.453 E.00735
G1 X121.098 Y124.844 E.01458
G1 X120.503 Y124.696 E.01618
G1 X120.918 Y124.28 E.0155
G1 X120.293 Y124.162 E.01678
G1 X119.843 Y124.612 E.01678
G1 X119.451 Y124.6 E.01036
G1 X119.096 Y124.616 E.00935
G1 X119.604 Y124.108 E.01893
G1 X119.097 Y124.118 E.01338
G1 X118.82 Y124.149 E.00733
G1 X118.212 Y124.757 E.02267
G1 X117.673 Y124.921 E.01487
G1 X119.552 Y124.974 F9000
;TYPE:Support material
;WIDTH:0.42
G1 F1200
G1 X119.862 Y124.986 E.00973
G1 X120.264 Y125.032 E.01268
G1 X120.661 Y125.109 E.01268
G1 X121.05 Y125.218 E.01268
G1 X121.429 Y125.359 E.01268
G1 X121.796 Y125.529 E.01268
G1 X122.228 Y125.779 E.01563
G1 X122.483 Y125.955 E.00973
G1 X122.798 Y126.208 E.01268
G1 X123.092 Y126.486 E.01268
G1 X123.364 Y126.787 E.01273
G1 X123.662 Y127.185 E.01558
G1 X123.828 Y127.447 E.00973
G1 X124.019 Y127.804 E.01269
G1 X124.18 Y128.175 E.01267
G1 X124.312 Y128.557 E.01268
G1 X124.43 Y129.041 E.01563
G1 X124.48 Y129.348 E.00973
G1 X124.516 Y129.75 E.01268
G1 X124.519 Y130.155 E.01268
G1 X124.49 Y130.558 E.01268
G1 X124.41 Y131.05 E.01564
G1 X124.335 Y131.351 E.00973
G1 X124.21 Y131.736 E.01268
G1 X124.051 Y132.119 E.01301
G1 X124.184 Y132.227 E.00536
G1 X124.223 Y132.422 E.00622
G1 X124.096 Y132.664 E.00857
G1 X123.88 Y133.005 E.01268
G1 X123.626 Y133.345 E.0133
G1 X123.339 Y133.67 E.01358
G1 X123.036 Y133.961 E.01317
G1 X122.744 Y134.202 E.01188
G1 X122.546 Y134.202 E.00622
G1 X122.407 Y134.088 E.00563
G1 X122.14 Y134.267 E.01005
G1 X121.788 Y134.465 E.01268
G1 X121.421 Y134.635 E.01268
G1 X121.042 Y134.774 E.01265
G1 X120.651 Y134.883 E.01271
G1 X120.254 Y134.96 E.01268
G1 X119.852 Y135.004 E.01268
G1 X119.448 Y135.017 E.01268
G1 X119.138 Y135.004 E.00973
G1 X118.736 Y134.958 E.01268
G1 X118.34 Y134.881 E.01268
G1 X117.944 Y134.77 E.01287
G1 X117.571 Y134.631 E.01249
G1 X117.204 Y134.461 E.01268
G1 X116.773 Y134.212 E.01562
G1 X116.517 Y134.035 E.00974
G1 X116.202 Y133.782 E.01268
G1 X115.908 Y133.504 E.01269
G1 X115.637 Y133.204 E.01267
G1 X115.338 Y132.805 E.01563
